X: 18371
T: Hundred Pipers
R: jig
M: 6/8
K: Amajor
A/B/|c2 E E>FE|F2 A A2 f|e2 c c>BA|B2 B B2 A/B/|
c2 E E>FE|F2 A A2 f|e2 c B>cB|A2 A A2||
c/d/|e2 e e>ce|f2 a a2 f|e2 c c>BA|B2 B B A/B|
c2 E E>FE|F2 A A2 f|e2 c B>cB|A2 A A2||

